X:1
T:Gentle Jesus, 77.77
T:Gentle Jesus, 77.77
T:Martin Fallas Shaw, 1915
C:Martin Fallas Shaw, 1915
%%score ( 1 2 ) ( 3 4 )
L:1/8
Q:1/4=140
M:6/4
K:F
V:1 treble 
V:2 treble 
V:3 bass 
V:4 bass 
V:1
 [FA]2 [FB]2 [Fc]4 [FA]4 | [EB]2 [FA]2 [EG]8 | [FA]2 [FB]2 [Fc]4 F4 | [FA]2 [EG]2 F8 | %4
 [CF]2 [CE]2 [B,D]4 [B,F]4 x2 | [DB]2 [DA]2 [EG]8 | [FA]2 [FB]2 [Fc]4 F4 | [FA]2 [EG]2 F8 |] %8
V:2
 x12 | x12 | x8 F4 | x4 F8 | x14 | x12 | x8 F4 | x4 F8 |] %8
V:3
 [F,C]2 [G,C]2 [A,C]4 [F,C]4 | [G,C]2 [F,C]2 [C,C]8 | [F,C]2 [G,C]2 [A,C]4 [D,=B,]4 | %3
 [C,C]2 [C,G,]2 [F,A,]8 | [A,,A,]2 [A,,A,]2 F,4 z2 A,,2 x2 | [G,,G,]2 [G,,F,]2 (E,4 G,4) | %6
 [_E,C]2 [D,B,]2 [C,A,]4 [B,,D]4 | [C,C]2 [C,G,]2 [F,A,]8 |] %8
V:4
 x12 | x12 | x12 | x12 | x4 B,,6 D,4 | x4 C,8 | x12 | x12 |] %8

